X: 28394
T: Muireann's
R: jig
M: 6/8
K: Bminor
|:dBA {d}BAB|def {f}ede|{e}f2e {ef}ede|faf ea/f/e|
dBA BAB|def {f}ede|fba fed|{e}f2e {f}edB:|
|:BAB {d}e3|{d}BAB {a}fef|Bba fed|{e}f2e {f}edB|
BAB {d}e2B|{d}BAB f3|baf a2b|fa/f/e {f}edB:|
|:BAF {G}E2G|{A}FDE FDE|FAA ABB|Bdd {f}edB|
{d}BAF {G}E2G|{A}FDE FDE|FAB def|1 ff/e/d {f}edB:|2 ff/e/d efg||
|:{a}fef b3/2b/b|{a}fef a3/2a/a|fba fed|{e}f2e {ef}ede|
fef b2f|f{f}ef a2(3e/f/a/|baf a2b|1 f/g/fe {ef}ede:|2 f/g/fe {f}edB||

